icons/meter/5.svg

<?xml version="1.0" encoding="UTF-8" standalone="no"?>
<svg viewBox="0 1 24 24" width="24" height="24" version="1.1" id="svg8" sodipodi:docname="5.svg" inkscape:version="1.2 (1:1.2.1+202207142221+cd75a1ee6d)"
   xmlns:inkscape="http://www.inkscape.org/namespaces/inkscape"
   xmlns:sodipodi="http://sodipodi.sourceforge.net/DTD/sodipodi-0.dtd"
   xmlns="http://www.w3.org/2000/svg"
   xmlns:svg="http://www.w3.org/2000/svg"
   xmlns:rdf="http://www.w3.org/1999/02/22-rdf-syntax-ns#"
   xmlns:cc="http://creativecommons.org/ns#"
   xmlns:dc="http://purl.org/dc/elements/1.1/">
   <defs id="defs2" />
   <sodipodi:namedview id="base" pagecolor="#ffffff" bordercolor="#666666" borderopacity="1.0" inkscape:pageopacity="0.0" inkscape:pageshadow="2" inkscape:zoom="22.627417" inkscape:cx="18.981398" inkscape:cy="14.959728" inkscape:document-units="px" inkscape:current-layer="layer1" inkscape:document-rotation="0" showgrid="true" units="px" inkscape:snap-center="true" inkscape:window-width="1920" inkscape:window-height="1016" inkscape:window-x="0" inkscape:window-y="0" inkscape:window-maximized="1" inkscape:pagecheckerboard="0" inkscape:showpageshadow="2" inkscape:deskcolor="#d1d1d1">
      <inkscape:grid type="xygrid" id="grid833" />
      <inkscape:grid type="xygrid" id="grid846" dotted="true" spacingx="0.13229167" spacingy="0.13229167" empspacing="10" />
   </sodipodi:namedview>
   <metadata id="metadata5">
      <rdf:RDF>
         <cc:Work rdf:about="">
            <dc:format>image/svg+xml</dc:format>
            <dc:type rdf:resource="http://purl.org/dc/dcmitype/StillImage" />
         </cc:Work>
      </rdf:RDF>
   </metadata>
   <g inkscape:label="Calque 1" inkscape:groupmode="layer" id="layer1">
      <g id="layer9" label="status" style="display:inline;stroke-width:0.211667" transform="matrix(1.25,0,0,1.25,-1114.2503,235.75)" />
      <g id="layer2" style="display:inline;stroke-width:0.211667" transform="matrix(1.25,0,0,1.25,-813.00005,-223)" />
      <g id="layer4" style="display:inline;stroke-width:0.211667" transform="matrix(1.25,0,0,1.25,-813.00005,-223)" />
      <g id="g1812" style="display:inline;stroke-width:0.211667" transform="matrix(1.25,0,0,1.25,-813.00005,-223)" />
      <g id="g6217" style="display:inline;stroke-width:0.211667" transform="matrix(1.25,0,0,1.25,-813.00005,-223)" />
      <g id="layer3" style="display:inline;stroke-width:0.211667" transform="matrix(1.25,0,0,1.25,-813.00005,-223)" />
      <g id="layer1-6" style="display:inline;stroke-width:0.211667" transform="matrix(1.25,0,0,1.25,-813.00005,-223)" />
      <path id="path47" style="fill:#808080;fill-rule:evenodd;stroke-width:0.264583;stroke-linecap:square;stroke-linejoin:round" d="m 11.5,2 a 9.4999995,9.4999995 0 0 0 -9.5,9.5 9.4999995,9.4999995 0 0 0 4.75,8.226562 l 0.5019531,-0.86914 a 8.4999997,8.4999997 0 0 1 -2.8398437,-2.6875 l 1.7089844,-0.986328 -0.5,-0.867188 -1.7089844,0.986328 a 8.4999997,8.4999997 0 0 1 -0.875,-3.302734 h 1.9628906 v -1 h -1.9648438 a 8.4999997,8.4999997 0 0 1 0.8808594,-3.3007812 l 1.7050782,0.984375 0.5,-0.8671876 -1.7148438,-0.9882812 a 8.4999997,8.4999997 0 0 1 2.421875,-2.421875 l 0.9882812,1.7148438 0.8671876,-0.5 -0.984375,-1.7050782 a 8.4999997,8.4999997 0 0 1 3.3007812,-0.8808594 v 1.9648438 h 1 v -1.9824219 a 8.4999997,8.4999997 0 0 1 3.294922,0.9082031 l -0.978516,1.6953126 0.867188,0.5 0.978515,-1.6953126 a 8.4999997,8.4999997 0 0 1 2.433594,2.4003907 l -1.716797,0.9902343 0.5,0.8671876 1.71875,-0.9921876 a 8.4999997,8.4999997 0 0 1 0.884766,3.3085938 h -1.982422 v 1 h 1.962891 a 8.4999997,8.4999997 0 0 1 -0.875,3.302734 l -1.708985,-0.986328 -0.5,0.867188 1.708985,0.986328 a 8.4999997,8.4999997 0 0 1 -2.839844,2.6875 l 0.501953,0.86914 a 9.4999995,9.4999995 0 0 0 4.75,-8.226562 9.4999995,9.4999995 0 0 0 -9.5,-9.5 z" />
      <path id="path938" style="fill:#808080;fill-opacity:1;fill-rule:evenodd;stroke-width:0.423334;stroke-linecap:square;stroke-linejoin:round" d="m 17.156854,16.449748 -4.303408,-4.303408 a 1.5,1.5 0 0 0 -0.292785,-1.706999 1.5,1.5 0 0 0 -2.12132,0 1.5,1.5 0 0 0 0,2.12132 1.5,1.5 0 0 0 1.706999,0.292785 l 4.303408,4.303407 z" inkscape:transform-center-y="2.0784268" inkscape:transform-center-x="-2.0784279" />
   </g>
</svg>

<?xml version="1.0" encoding="UTF-8" standalone="no"?>
<svg
   width="24"
   height="24"
   viewBox="0 0 6.3499998 6.3500002"
   version="1.1"
   id="svg8"
   sodipodi:docname="5.svg"
   inkscape:version="1.1.2 (76b9e6a115, 2022-02-25)"
   xmlns:inkscape="http://www.inkscape.org/namespaces/inkscape"
   xmlns:sodipodi="http://sodipodi.sourceforge.net/DTD/sodipodi-0.dtd"
   xmlns="http://www.w3.org/2000/svg"
   xmlns:svg="http://www.w3.org/2000/svg"
   xmlns:rdf="http://www.w3.org/1999/02/22-rdf-syntax-ns#"
   xmlns:cc="http://creativecommons.org/ns#"
   xmlns:dc="http://purl.org/dc/elements/1.1/">
  <defs
     id="defs2" />
  <sodipodi:namedview
     id="base"
     pagecolor="#ffffff"
     bordercolor="#666666"
     borderopacity="1.0"
     inkscape:pageopacity="0.0"
     inkscape:pageshadow="2"
     inkscape:zoom="32"
     inkscape:cx="17.640625"
     inkscape:cy="13.203125"
     inkscape:document-units="px"
     inkscape:current-layer="layer1"
     inkscape:document-rotation="0"
     showgrid="true"
     units="px"
     inkscape:snap-center="true"
     inkscape:window-width="1920"
     inkscape:window-height="1016"
     inkscape:window-x="0"
     inkscape:window-y="27"
     inkscape:window-maximized="1"
     inkscape:pagecheckerboard="0">
    <inkscape:grid
       type="xygrid"
       id="grid833" />
    <inkscape:grid
       type="xygrid"
       id="grid846"
       dotted="true"
       spacingx="0.13229167"
       spacingy="0.13229167"
       empspacing="10" />
  </sodipodi:namedview>
  <metadata
     id="metadata5">
    <rdf:RDF>
      <cc:Work
         rdf:about="">
        <dc:format>image/svg+xml</dc:format>
        <dc:type
           rdf:resource="http://purl.org/dc/dcmitype/StillImage" />
      </cc:Work>
    </rdf:RDF>
  </metadata>
  <g
     inkscape:label="Calque 1"
     inkscape:groupmode="layer"
     id="layer1">
    <g
       id="layer9"
       label="status"
       style="display:inline;stroke-width:0.8"
       transform="matrix(0.33072916,0,0,0.33072916,-294.81205,62.37552)" />
    <g
       id="layer2"
       style="display:inline;stroke-width:0.8"
       transform="matrix(0.33072916,0,0,0.33072916,-215.10626,-59.002082)" />
    <g
       id="layer4"
       style="display:inline;stroke-width:0.8"
       transform="matrix(0.33072916,0,0,0.33072916,-215.10626,-59.002082)" />
    <g
       id="g1812"
       style="display:inline;stroke-width:0.8"
       transform="matrix(0.33072916,0,0,0.33072916,-215.10626,-59.002082)" />
    <g
       id="g6217"
       style="display:inline;stroke-width:0.8"
       transform="matrix(0.33072916,0,0,0.33072916,-215.10626,-59.002082)" />
    <g
       id="layer3"
       style="display:inline;stroke-width:0.8"
       transform="matrix(0.33072916,0,0,0.33072916,-215.10626,-59.002082)" />
    <g
       id="layer1-6"
       style="display:inline;stroke-width:0.8"
       transform="matrix(0.33072916,0,0,0.33072916,-215.10626,-59.002082)" />
    <path
       id="path47"
       style="fill:#808080;fill-rule:evenodd;stroke-width:0.999999;stroke-linecap:square;stroke-linejoin:round"
       d="M 11.5 2 A 9.4999995 9.4999995 0 0 0 2 11.5 A 9.4999995 9.4999995 0 0 0 6.75 19.726562 L 7.2519531 18.857422 A 8.4999997 8.4999997 0 0 1 4.4121094 16.169922 L 6.1210938 15.183594 L 5.6210938 14.316406 L 3.9121094 15.302734 A 8.4999997 8.4999997 0 0 1 3.0371094 12 L 5 12 L 5 11 L 3.0351562 11 A 8.4999997 8.4999997 0 0 1 3.9160156 7.6992188 L 5.6210938 8.6835938 L 6.1210938 7.8164062 L 4.40625 6.828125 A 8.4999997 8.4999997 0 0 1 6.828125 4.40625 L 7.8164062 6.1210938 L 8.6835938 5.6210938 L 7.6992188 3.9160156 A 8.4999997 8.4999997 0 0 1 11 3.0351562 L 11 5 L 12 5 L 12 3.0175781 A 8.4999997 8.4999997 0 0 1 15.294922 3.9257812 L 14.316406 5.6210938 L 15.183594 6.1210938 L 16.162109 4.4257812 A 8.4999997 8.4999997 0 0 1 18.595703 6.8261719 L 16.878906 7.8164062 L 17.378906 8.6835938 L 19.097656 7.6914062 A 8.4999997 8.4999997 0 0 1 19.982422 11 L 18 11 L 18 12 L 19.962891 12 A 8.4999997 8.4999997 0 0 1 19.087891 15.302734 L 17.378906 14.316406 L 16.878906 15.183594 L 18.587891 16.169922 A 8.4999997 8.4999997 0 0 1 15.748047 18.857422 L 16.25 19.726562 A 9.4999995 9.4999995 0 0 0 21 11.5 A 9.4999995 9.4999995 0 0 0 11.5 2 z "
       transform="scale(0.26458333)" />
    <path
       id="path938"
       style="fill:#808080;fill-opacity:1;fill-rule:evenodd;stroke-width:0.423333;stroke-linecap:square;stroke-linejoin:round"
       d="m 4.5394177,4.3523292 -1.13861,-1.1386101 a 0.396875,0.396875 0 0 0 -0.077466,-0.4516436 0.396875,0.396875 0 0 0 -0.561266,0 0.396875,0.396875 0 0 0 0,0.561266 0.396875,0.396875 0 0 0 0.4516436,0.077466 l 1.13861,1.13861 z"
       inkscape:transform-center-y="0.54991711"
       inkscape:transform-center-x="-0.54991743" />
  </g>
</svg>
